X:9
T:Lichtmann 9
C:M. Praetorious
M:2/2
L:1/8
Q:"Vivace" 1/2=100
K:G
!f!Bc"_lively"|d2d2d3c|B2G2G2cd|e2c2c3B/c/|d2B2B2B2|A2G2A3G/A/|
B2G2G2FG||A2A2A3G|F2D4A2|F2D4d2|B2G4cd|e2c2cde2|d2B4FG|
A2A2A2AG|F2D4A2|F2D4d2|B2G4cB|A2G2F3E/F/|G4G2|]

